a/assets/inline-svg/app-components/module-dashboard/approval-widget.svg

<svg width="42" height="51" viewBox="0 0 42 51" fill="none" xmlns="http://www.w3.org/2000/svg">
<rect x="1" y="7" width="36" height="40" rx="2" fill="#346DD1" stroke="#3A3C3F" stroke-width="0.6" stroke-miterlimit="10"/>
<rect x="3.6001" y="10" width="31" height="34" rx="1" fill="white" stroke="#3A3C3F" stroke-width="0.6" stroke-miterlimit="10"/>
<path d="M24.8671 4.11526C23.8348 4.11526 23.0769 3.19361 22.4834 2.34894C21.9218 1.54952 20.8599 1 19.1038 1C17.3857 1 16.3501 1.49872 15.7835 2.23711C15.1111 3.11345 14.3143 4.11526 13.2098 4.11526H13.1599C12.0553 4.11526 11.1599 5.01069 11.1599 6.11526V11.4611C11.1599 12.5656 12.0553 13.4611 13.1599 13.4611H24.7362C25.8408 13.4611 26.7362 12.5656 26.7362 11.4611V5.98442C26.7362 4.95212 25.8994 4.11526 24.8671 4.11526V4.11526Z" fill="white" stroke="#3A3C3F" stroke-width="0.6" stroke-miterlimit="10"/>
<path d="M14.061 17.1338H30.4162" stroke="#3A3C3F" stroke-width="0.6" stroke-miterlimit="10" stroke-linecap="round"/>
<path d="M14.061 22.5854H30.4162" stroke="#3A3C3F" stroke-width="0.6" stroke-miterlimit="10" stroke-linecap="round"/>
<path d="M14.061 28.0376H30.4162" stroke="#3A3C3F" stroke-width="0.6" stroke-miterlimit="10" stroke-linecap="round"/>
<path d="M14.061 33.4893H23.4068" stroke="#3A3C3F" stroke-width="0.6" stroke-miterlimit="10" stroke-linecap="round"/>
<path d="M10.9458 16.355L8.94316 18.5802L7.83057 17.4676" fill="white"/>
<path d="M10.9458 16.355L8.94316 18.5802L7.83057 17.4676" stroke="#3A3C3F" stroke-width="0.6" stroke-miterlimit="10" stroke-linecap="round"/>
<path d="M10.9458 21.8066L8.94316 24.0318L7.83057 22.9192" fill="white"/>
<path d="M10.9458 21.8066L8.94316 24.0318L7.83057 22.9192" stroke="#3A3C3F" stroke-width="0.6" stroke-miterlimit="10" stroke-linecap="round"/>
<path d="M10.9458 27.2588L8.94316 29.484L7.83057 28.3714" fill="white"/>
<path d="M10.9458 27.2588L8.94316 29.484L7.83057 28.3714" stroke="#3A3C3F" stroke-width="0.6" stroke-miterlimit="10" stroke-linecap="round"/>
<path d="M10.9458 32.7104L8.94316 34.9356L7.83057 33.823" fill="white"/>
<path d="M10.9458 32.7104L8.94316 34.9356L7.83057 33.823" stroke="#3A3C3F" stroke-width="0.6" stroke-miterlimit="10" stroke-linecap="round"/>
<path opacity="0.3" d="M35 31.3444C34.0488 31 33.4939 31 32.4634 31C26 31 22 35.5 22 42.3643C22 43.1391 22 43.2252 22.0792 44H35V31.3444Z" fill="#062A50"/>
<path d="M32.567 50.0002C37.3414 50.0002 41.2118 46.1297 41.2118 41.3553C41.2118 36.5809 37.3414 32.7104 32.567 32.7104C27.7925 32.7104 23.9221 36.5809 23.9221 41.3553C23.9221 46.1297 27.7925 50.0002 32.567 50.0002Z" fill="white" stroke="#3A3C3F" stroke-width="0.6" stroke-miterlimit="10"/>
<path d="M32.567 47.5079C35.965 47.5079 38.7196 44.7533 38.7196 41.3553C38.7196 37.9572 35.965 35.2026 32.567 35.2026C29.169 35.2026 26.4143 37.9572 26.4143 41.3553C26.4143 44.7533 29.169 47.5079 32.567 47.5079Z" fill="white" stroke="#3A3C3F" stroke-width="0.6" stroke-miterlimit="10"/>
<path d="M34.8255 39.7197L31.8215 42.835L30.1526 41.2774" fill="white"/>
<path d="M34.8255 39.7197L31.8215 42.835L30.1526 41.2774" stroke="#3A3C3F" stroke-width="0.6" stroke-miterlimit="10" stroke-linecap="round"/>
</svg>

<svg xmlns="http://www.w3.org/2000/svg" width="42" height="51" fill="none" xmlns:v="https://vecta.io/nano"><style><![CDATA[.B{fill:#fff}.C{stroke:#3a3c3f}.D{stroke-width:.6}.E{stroke-miterlimit:10}.F{stroke-linecap:round}]]></style><g clip-path="url(#A)"><g class="C D E"><path d="M35 7H3a2 2 0 0 0-2 2v36a2 2 0 0 0 2 2h32a2 2 0 0 0 2-2V9a2 2 0 0 0-2-2Z" fill="#346dd1"/><g class="B"><path d="M33.6 10h-29a1 1 0 0 0-1 1v32a1 1 0 0 0 1 1h29a1 1 0 0 0 1-1V11a1 1 0 0 0-1-1Z"/><path d="M24.867 4.115c-1.032 0-1.79-.921-2.384-1.766C21.922 1.549 20.86 1 19.103 1c-1.717 0-2.753.499-3.32 1.237-.672.876-1.469 1.878-2.573 1.878h-.05a2 2 0 0 0-2 2v5.346a2 2 0 0 0 2 2h11.576a2 2 0 0 0 2-2V5.984a1.87 1.87 0 0 0-1.869-1.869Z"/></g><path d="M14.061 17.134h16.355m-16.355 5.451h16.355m-16.355 5.453h16.355M14.061 33.49h9.346" class="F"/></g><path d="M10.946 16.355 8.943 18.58l-1.112-1.112" class="B"/><path d="M10.946 16.355 8.943 18.58l-1.112-1.112" class="C D E F"/><path d="m10.946 21.807-2.003 2.225-1.112-1.113" class="B"/><path d="m10.946 21.807-2.003 2.225-1.112-1.113" class="C D E F"/><path d="m10.946 27.259-2.003 2.225-1.112-1.113" class="B"/><path d="m10.946 27.259-2.003 2.225-1.112-1.113" class="C D E F"/><path d="m10.946 32.71-2.003 2.226-1.112-1.113" class="B"/><path d="m10.946 32.71-2.003 2.226-1.112-1.113" class="C D E F"/><path opacity=".3" d="M35 31.344C34.049 31 33.494 31 32.463 31 26 31 22 35.5 22 42.364c0 .775 0 .861.08 1.636H35V31.344Z" fill="#062a50"/><g class="B C D E"><path d="M32.567 50a8.645 8.645 0 1 0 0-17.29 8.645 8.645 0 0 0 0 17.29Z"/><path d="M32.567 47.508a6.153 6.153 0 1 0 0-12.305 6.153 6.153 0 0 0 0 12.305Z"/></g><path d="m34.825 39.72-3.004 3.115-1.668-1.558" class="B"/><path d="m34.825 39.72-3.004 3.115-1.668-1.558" class="C D E F"/></g><defs><clipPath id="A"><path d="M0 0h42v51H0z" class="B"/></clipPath></defs></svg>
